X:555
T: RAEGE RAEGE TROPFE
N: E1843
O: Europa, Mitteleuropa, Deutschland; Frankreich, Elsass
R: Kinder - Lied, Regen - Lied
M: 2/4
L: 1/16
K: G
 | d2e2d2e2 | d4B4 |
d2e2d2e2 | d4B4 |
d2e2dde2 | d2c2B4 |
d2e2dde2 | d2c2B2z2

@@@ Tune index: 5239
